src/icons/edit-code.svg

<?xml version="1.0" encoding="UTF-8"?>
<svg id="export" xmlns="http://www.w3.org/2000/svg" width="24" height="24" viewBox="0 0 24 24">
  <defs>
    <style>
      .cls-1 {
        fill: #bb2649;
      }
    </style>
  </defs>
  <g id="icon-code-edit">
    <g>
      <path class="cls-1" d="m9.1,17.16l-5.73-2.52v-.71l5.73-2.86v1.14l-4.3,2.02,4.3,1.78v1.15Z"/>
      <path class="cls-1" d="m14.24,9.88l-3.19,8.57h-1.3l3.2-8.57h1.3Z"/>
      <path class="cls-1" d="m14.9,16l4.3-1.78-4.3-2.02v-1.14l5.73,2.86v.71l-5.73,2.52v-1.15Z"/>
    </g>
    <path class="cls-1" d="m21.5,4.75h-13c-.28,0-.5-.22-.5-.5s.22-.5.5-.5h13c.28,0,.5.22.5.5s-.22.5-.5.5Z"/>
    <path class="cls-1" d="m23.5,2H.5c-.28,0-.5.22-.5.5v19c0,.28.22.5.5.5h23c.28,0,.5-.22.5-.5V2.5c0-.28-.22-.5-.5-.5Zm-.5,1v2.5H1v-2.5h22ZM1,21V6.5h22v14.5H1Z"/>
    <circle class="cls-1" cx="2.5" cy="4.25" r=".5"/>
    <circle class="cls-1" cx="4.5" cy="4.25" r=".5"/>
    <circle class="cls-1" cx="6.5" cy="4.25" r=".5"/>
  </g>
</svg>

<svg id="export" xmlns="http://www.w3.org/2000/svg" width="24" height="24" viewBox="0 0 24 24"><defs><style>.cls-1{fill:#3c5583;}</style></defs><g id="icon-code-edit"><path class="cls-1" d="M9.1,17.16,3.37,14.64v-.71L9.1,11.07v1.14l-4.3,2L9.1,16Z"/><path class="cls-1" d="M14.24,9.88l-3.19,8.57H9.75L13,9.88Z"/><path class="cls-1" d="M14.9,16l4.3-1.77-4.3-2V11.07l5.73,2.86v.71L14.9,17.16Z"/><path class="cls-1" d="M21.5,4.75H8.5a.5.5,0,0,1,0-1h13a.5.5,0,0,1,0,1Z"/><path class="cls-1" d="M23.5,2H.5a.5.5,0,0,0-.5.5v19a.5.5,0,0,0,.5.5h23a.5.5,0,0,0,.5-.5V2.5A.5.5,0,0,0,23.5,2ZM23,3V5.5H1V3ZM1,21V6.5H23V21Z"/><circle class="cls-1" cx="2.5" cy="4.25" r="0.5"/><circle class="cls-1" cx="4.5" cy="4.25" r="0.5"/><circle class="cls-1" cx="6.5" cy="4.25" r="0.5"/></g></svg>
